X:3
T: Tenpenny Bit, The (J-3)
M: 6/8
Z: Transcribed to abc by Mary Lou Knack
R: jig
P: A Dorian
K: ADor
| "Am"e2A eAA| "G"BAB GBd| "Am"eAA eAA| "D"def "G"gfg|
   "Am"eAA eAA| "G"BAB GBd| "Em"edB gBB| "Am"BAA A2 :|
|:B| "Am"A2a aga| "Em"bge dBG| "Am"A2a aga| "Em"bge g2d|
   "Am"e2a aga| "Em"bge dBd| edB gBB| "Am"BAA A2 :|
%%text 04/3/05 

#include "LeftHeader.h"
%%footer 11/11/05 For use only by Roaring Jelly members
%%text Set 80 (old 79)
%%vskip -1cm
%%scale .64
